X:1
T:My Kindly Sweetheart
L:1/8
M:4/4
I:linebreak $
K:Bmin
V:1 treble 
V:1
|: B2 d2 cBBc | B2 c2 feef | B2 d2 cB B2 | cAAc fe e2 :: d2 fe dBAB | d2 a2 feef |$ d2 fe dB A2 | %7
 A2 c2 feef :| %8
